!!!CDT:
!!!PTL: Il secondo libro de madrigali a quattro voci
!!!PPP: Venice
!!!PPR: Angelo Gardano
!!!PDT: 1586
!!!PUB-format:
!!!RISM: D 3655
!!!rime: 362
!!!AGN: Madrigal
!!!SCT: Trm0362a
!!!SCA: Trm0362a
!!!original-voices: 4
!!!extant-voices: 4
!!!complete: Y
!!!final: A
!!!COM: Dueto, Antonio
!!!OTL: Questo riposto bel vago boschetto
**kern	**text	**kern	**text	**kern	**text	**kern	**text
*part4	*part4	*part3	*part3	*part2	*part2	*part1	*part1
*staff4	*staff4	*staff3	*staff3	*staff2	*staff2	*staff1	*staff1
*I"Basso	*	*I"Tenore	*	*I"Alto	*	*I"Canto	*
*I'B	*	*I'T	*	*I'A	*	*I'C	*
*oclefF4	*	*oclefC4	*	*oclefC3	*	*oclefC1	*
*clefF4	*	*clefGv2	*	*clefGv2	*	*clefG2	*
*k[]	*	*k[]	*	*k[]	*	*k[]	*
*omet(C|)	*	*omet(C|)	*	*omet(C|)	*	*omet(C|)	*
*M2/1	*	*M2/1	*	*M2/1	*	*M2/1	*
=1	=1	=1	=1	=1	=1	=1	=1
!!LO:TX:a:t=[Prima parte.]
0r	.	0r	.	2d	Que-	2r	.
.	.	.	.	4c	-sto	2a	Que-
.	.	.	.	4A	ri-	.	.
.	.	.	.	4B	-po-	4g	-sto
.	.	.	.	4c	-sto	4e	ri-
.	.	.	.	4d	bel	4f#i	-po-
.	.	.	.	4B	va-	4g#X	-sto
=2	=2	=2	=2	=2	=2	=2	=2
2D	Que-	2r	.	8AL	-go	4a	bel
.	.	.	.	8G	.	.	.
.	.	.	.	8A	.	4fnXi	va-
.	.	.	.	8BJ	.	.	.
4C	-sto	2A	Que-	4c	.	8eL	-go
.	.	.	.	.	.	8d	.
4AA	ri-	.	.	4c	bo-	8e	.
.	.	.	.	.	.	8fJ	.
4BB	-po-	4G	-sto	4d	-schet-	4g	.
4C	-sto	4E	ri-	4G	-to,	4g	bo-
4D	bel	4F	-po-	2r	.	4f	-schet-
4BB	va-	4G	-sto	.	.	4d	-to,
=3	=3	=3	=3	=3	=3	=3	=3
8AAL	-go	4A	bel	2r	.	4r	.
8GG	.	.	.	.	.	.	.
8AA	.	4F	va-	.	.	4c	va-
8BBJ	.	.	.	.	.	.	.
4C	.	8EL	-go	1g	<Que-	4c	-go
.	.	8D	.	.	.	.	.
4C	bo-	8E	.	.	.	4c	bo-
.	.	8FJ	.	.	.	.	.
2E	-schet-	4G	.	.	.	2B	-schet-
.	.	4G	bo-	.	.	.	.
2D	-to,	2A	-schet-	4f	-sto	4d	-to,
.	.	.	.	4d	ri-	4dd	Que-
=4	=4	=4	=4	=4	=4	=4	=4
1r	.	2A	-to,	4e	-po-	4cc	-sto
.	.	.	.	4f#X	-sto	4a	ri-
.	.	2r	.	4g	bel	4b	-po-
.	.	.	.	4e	va-	4cc#X	-sto
4r	.	2r	.	8dL	-go	4dd	bel
.	.	.	.	8c	.	.	.
4G	<Que-	.	.	8d	.	4b	va-
.	.	.	.	8eJ	.	.	.
4F	-sto	4r	.	4fnXi	.	8aL	-go
.	.	.	.	.	.	8g	.
4D	ri-	4d	<Que-	4f	bo-	8a	.
.	.	.	.	.	.	8bJ	.
=5	=5	=5	=5	=5	=5	=5	=5
4E	-po-	4c	-sto	4e	-schet-	4ccnXi	.
4F	-sto	4A	ri	4c	-to,>	4cc	bo-
4G	bel	4B	pos-	4r	.	4b	-schet
4E	va-	4c#X	-to	4e	bel	4g	to
8DL	-go-	4d	bel	4.f	va-	1r	.
8C	.	.	.	.	.	.	.
8D	.	4B	va-	.	.	.	.
8EJ	.	.	.	8e	.	.	.
4F	.	8AL	-go	4c	.	.	.
.	.	8G	.	.	.	.	.
4D	-bo-	8A	.	4d	.	.	.
.	.	8BJ	.	.	.	.	.
=6	=6	=6	=6	=6	=6	=6	=6
4.C	-schet	4cnXi	.	4e	-go	1r	.
.	.	2A	bo-	4c	bo-	.	.
8D	.	.	.	.	.	.	.
2E	.	.	.	2B	-schet-	.	.
.	.	4G#X	-schet-	.	.	.	.
2AA	to>	2A	-to>	2c#X	-to	1e	D'om-
4r	.	4r	.	4r	.	.	.
4AA	D'om-	4A	D'om-	4cnXi	D'om-	.	.
=7	=7	=7	=7	=7	=7	=7	=7
4D	-bro-	4A	-bro-	4d	-bro-	4f	-bro-
4C	-si	4c	-si	4e	-si	4g	-si
2F	mir-	2c	mir-	2.f	mir-	2a	mir-
2C	-ti e	2c	-ti e	.	.	2g	-ti e
.	.	.	.	4e	-ti e	.	.
4.F	d'in-	4.c	d'in-	4.f	d'in-	4.a	d'in-
8F	-do-	8c	-do-	8f	-do-	8a	-do-
=8	=8	=8	=8	=8	=8	=8	=8
4F	-ra-	4f	-ra-	4a	-ra-	4cc	-ra-
4G	-ti al-	2d	-ti al-	4g	-ti al-	4b	-ti al-
2A	-lo-	.	.	2e	-lo-	2a	-lo-
.	.	4c#X	-lo-	.	.	.	.
2D	-ri,	2d	-ri,	2f#X	-ri,	2a	-ri,
4r	.	4r	.	4r	.	4r	.
4D	<D'om-	4d	<D'om-	4f#i	<D'om-	4a	<D'om-
=9	=9	=9	=9	=9	=9	=9	=9
4G	-bro-	4d	-bro-	4g	-bro-	4b	-bro-
4E	-si	4e	-si	4g	-si	4cc#X	-si
2D	mir-	2f	mir-	2.a	mir-	2.dd	mir-
2A	-ti e	4e	-ti e	.	.	.	.
.	.	4.e	d'in-	4e	-ti e	4ccnXi	-ti e
4.G	d'in-	.	.	4.g	d'in-	4.b	d'in-
.	.	8e	-do-	.	.	.	.
.	.	4d	-ra-	.	.	.	.
8G	-do-	.	.	8g	-do-	8b	-do-
=10	=10	=10	=10	=10	=10	=10	=10
4G	-ra-	4e	-ti al-	4g	-ra-	4b	-ra-
4F	-ti al-	2d	-lo-	4a	-ti al-	4dd	-ti al-
2E	-lo-	.	.	2g	-lo-	2ee	-lo-
.	.	4c#X	-ri,>	.	.	.	.
1D	-ri,>	4d	Non	4f	-ri,>	2a	-ri,>
.	.	4.d	de	4.f	Non	.	.
.	.	.	.	.	.	4r	.
.	.	8d	ro-	8f	de	.	.
.	.	4d	-zi	4f	ro-	[4a	Non
=11	=11	=11	=11	=11	=11	=11	=11
1r	.	4cnXi	bi-	4e	-zi	8a]	.
.	.	.	.	.	.	8a	de
.	.	4A	-fol-	4c	bi-	4a	ro-
.	.	4c	-ci o	4e	-fol-	4g	-zi
.	.	4c	de	4e	-ci o	4e	bi-
2r	.	4B-X	pa-	4d	de	2g	-fol-
.	.	4G	-sto	4B	pa-	.	.
4r	.	2B-i	.	4d	-sto-	4f	-ci,
[4D	Non	.	.	4d	-ri, o	[4f	<Non
=12	=12	=12	=12	=12	=12	=12	=12
8D]	.	4A	ri,	4d	de	8f]	.
8D	de	.	.	.	.	8f	de
4D	ro-	4.A	<Non	4A	pa-	4f	ro-
4C	-zi	.	.	2c	-sto-	4e	-zi
.	.	8A	de	.	.	.	.
4AA	bi-	4A	ro-	.	.	4c	bi-
4C	-fol-	4G	-zi	2c	-ri,	4e	-fol-
4C	-ci o	4E	bi-	.	.	4e	-ci> o
4BB-X	de	4G	-fol-	4r	.	4d	de
4GG	pa-	4G	-ci o	[4d	Non	4g	pa-
=13	=13	=13	=13	=13	=13	=13	=13
2BB-X	-sto-	4D	de	8d]	.	4.f	-sto-
.	.	.	.	8d	de	.	.
.	.	4D	pa-	4d	ro-	.	.
.	.	.	.	.	.	8g	.
2.AA	-ri,	4F	-sto-	4c	-zi	2a	.
.	.	4E	-ri,>	4A	bi-	.	.
.	.	2r	.	8cL	-fol-	4e	-ri,
.	.	.	.	8B	.	.	.
4.A	<Non	.	.	8c	.	4.cc	Non
.	.	.	.	8dJ	.	.	.
.	.	4r	.	4.e	.	.	.
8A	de	.	.	.	.	8cc	di
4A	ro-	[4e	<Non	.	.	4cc	ro-
.	.	.	.	8f	.	.	.
=14	=14	=14	=14	=14	=14	=14	=14
4G	-zi	8e]	.	4g	.	4b	-zi
.	.	8e	de	.	.	.	.
4E	bi-	4e	ro-	4g	-ci o	4g	bi-
4G	-fol-	4d	-zi	4g	de	2b	-fol-
4G	-ci o	4B	bi-	4d	pa-	.	.
4F	de	4d	-fol-	2f	-sto-	2a	-ci o
4D	pa-	4d	-ci o	.	.	.	.
4.F	-sto-	4c	de	2f	-ri, o	4a	de
.	.	[4A	pa-	.	.	4a	pa-
8G	.	.	.	.	.	.	.
=15	=15	=15	=15	=15	=15	=15	=15
1A	.	4A]	.	4e	de	1a	-sto-
.	.	2d	-sto-	4d	pa-	.	.
.	.	.	.	2e	-sto-	.	.
.	.	4c#X	.	.	.	.	.
2D	-ri,>	2d	-ri,>	2f#X	-ri,	2a	-ri,
4D	Ma	4f	Ma	4a	Ma	4dd	Ma
8D	d'a-	8f	d'a-	8a	d'a-	8dd	d'a-
8D	-mo-	8f	-mo-	8a	-mo-	8dd	-mo-
=16	=16	=16	=16	=16	=16	=16	=16
4F	-ro-	4f	-ro-	4a	-ro-	4cc	-ro-
4G	-se	4d	-se	4g	-se	4b	-se
2A	Dee,	2c#X	Dee,	2e	Dee,	2a	Dee,
4D	<Ma	4d	<Ma	4fnXi	<Ma	4a	<Ma
8D	d'a-	8d	d'a-	8f	d'a-	8a	d'a-
8D	-mo-	8d	-mo-	8f	-mo-	8a	-mo-
4C	-ro-	4G	-ro-	4e	-ro-	4cc	-ro-
4GG	-se	4G	-se	4d	-se	4b	-se
=17	=17	=17	=17	=17	=17	=17	=17
2AA	Dee>	2E	Dee>	2c#X	Dee>	2a	Dee>
2D	stan-	2F#X	sant-	2d	stan-	2a	stan-
4GG	-za e	4G	-za e	4d	-za e	4b-X	-za e
4GG	ri-	4G	ri-	2d	ri-	4b-i	ri-
2AA	-cet-	2E	-cet-	.	.	2a	-cet-
.	.	.	.	4c#i	-cet-	.	.
=18	=18	=18	=18	=18	=18	=18	=18
1D	-to,	2D	-to,	2d	-to,	2f#X	-to,
.	.	2r	.	2r	.	2r	.
1r	.	4FnXi	Ma	4f	Ma	4a	Ma
.	.	8F	d'a-	8f	d'a-	8a	d'a-
.	.	8F	-mo-	8f	-mo-	8a	-mo-
.	.	4C	-ro-	4e	-ro-	4g	-ro-
.	.	4D	-se	4d	-se	4fnXi	-se
=19	=19	=19	=19	=19	=19	=19	=19
2r	.	2A	Dee,	2c#X	Dee,	2e	Dee,
4A	Ma	4c	<Ma-	4e	<Ma	4a	<Ma
8A	d'a-	8c	-d'a-	8e	d'a-	8a	d'a-
8A	-mo-	8c	-mo-	8e	-mo-	8a	-mo-
4F	-ro-	4f	-ro-	4a	-ro-	4cc	-ro-
4G	-se	4d	-se	4g	-se	4b	-se
4A	Dee	4c	Dee>	4e	Dee>	4a	Dee>
4F	stan-	4c	stan-	4f	stan-	4a	stan-
=20	=20	=20	=20	=20	=20	=20	=20
4BB-X	-za e	4B-X	-za e	4d	-za e	4g	-za e
4BB-i	ri-	4B-i	ri-	4d	ri-	2f	ri-
2C	-cet-	2G	-cet-	2cnXi	-cet-	.	.
.	.	.	.	.	.	4e	-cet-
2F	-to,	2A	-to,	2c	-to,	2f	-to,
4F	Ma	4c	Ma	4f	Ma	4a	Ma
8F	d'a-	8c	d'a-	8f	d'a-	8a	d'a-
8F	-mo-	8c	-mo-	8f	-mo-	8a	-mo-
=21	=21	=21	=21	=21	=21	=21	=21
4C	-ro-	4c	-ro-	4e	-ro-	4g	-ro-
4D	-se-	4A	-se	4d	-se	4f	-se
2AA	-Dee,	2A	Dee,	2c#X	Dee,	2e	Dee,
4A	<Ma	4c	<Ma	4e	<Ma	4cc	<Ma
8A	d'a-	8c	d'a-	8e	d'a-	8cc	d'a-
8A	-mo-	8c	-mo-	8f#X	-mo-	8cc	-mo-
4G	-ro-	4d	-ro-	4g	-ro-	4b	-ro-
4D	-se	4d	-se	4fnXi	-se	4a	-se
=22	=22	=22	=22	=22	=22	=22	=22
2E	Dee>	2B	Dee>	4.e	Dee>	2g#X	Dee>
.	.	.	.	8d	.	.	.
2F	stan-	4r	.	4cnX	.	2a	stan-
.	.	4c	stan-	4f	stan-	.	.
4C	-za e	4c	-za e	4e	-za e	4gnXi	-za e
4D	ri-	4A	ri-	2d	ri-	4f	ri-
2AA	-cet-	2A	-cet-	.	.	2e	-cet-
.	.	.	.	4c#X	-cet-	.	.
=23	=23	=23	=23	=23	=23	=23	=23
0Dl	-to.	0Al	-to.	0dl	-to.	0f#Xl	-to.
=24||	=24||	=24||	=24||	=24||	=24||	=24||	=24||
!!LO:TX:a:t=Seconda parte.
2D	Ch'a-	2F	Ch'a-	2A	Ch'a-	2d	Ch'a-
4AA	-scon-	4E	-scon-	4A	-scon-	4c#X	-scon-
4D	-d'in	4F	-d'in	4A	-d'in	4d	-d'in
2C	grem-	2G	grem-	2c	grem-	2e	grem-
2GG	-b'un	2G	-b'un	2B	-b'un	2d	-b'un
=25	=25	=25	=25	=25	=25	=25	=25
4.FF	pic-	4.A	pic-	4.c	pic-	4.f	pic-
8FF	-ciol	8A	-ciol	8c	-ciol	8f	-ciol
4GG	ru-	4G	ru-	4B	ru-	4e	ru-
4GG	-scel-	4G	-scel-	4B	-scel-	4d	-scel-
[1AA	-let-	2E	-let-	4.A	-let-	4.cnXi	-let-
.	.	.	.	8GL	.	8BL	.
.	.	4E	-to	8A	.	8c	.
.	.	.	.	8BJ	.	8dJ	.
.	.	[4A	ru-	[4c	.	[4e	.
=26	=26	=26	=26	=26	=26	=26	=26
1AA]	.	4A]	.	8c]L	.	8e]L	.
.	.	.	.	8B	.	8dJ	.
.	.	4F	-scel-	8A	.	2d	.
.	.	.	.	8GJ	.	.	.
.	.	2E	-let-	2A	.	.	.
.	.	.	.	.	.	4c#i	.
1D	-to	1D	-to	2A	-to	2d	-to
.	.	.	.	4.d	Le	2r	.
.	.	.	.	8e	cui	.	.
=27	=27	=27	=27	=27	=27	=27	=27
0r	.	0r	.	4f	ri-	4.a	Le
.	.	.	.	4f	-ve,	.	.
.	.	.	.	.	.	8b	cui
.	.	.	.	4.e	<Le	4cc	ri-
.	.	.	.	.	.	4cc	-ve,
.	.	.	.	8f	cui	.	.
.	.	.	.	4g	ri-	4.b	<Le
.	.	.	.	4g	-ve,>	.	.
.	.	.	.	.	.	8cc	cui
.	.	.	.	4.f	Le	2dd	ri-
.	.	.	.	8g	cui	.	.
=28	=28	=28	=28	=28	=28	=28	=28
0r	.	2r	.	4a	ri-	2cc	-ve> am-
.	.	.	.	2a	-ve am-	.	.
.	.	2E	son	.	.	2b	-be
.	.	.	.	2g	-be	.	.
.	.	2F	pin-	.	.	2a	son
.	.	.	.	2f	son	.	.
.	.	4C	-te	.	.	2g	pin-
.	.	4C	di	[4e	pin-	.	.
=29	=29	=29	=29	=29	=29	=29	=29
1r	.	2D	fio-	4e]	.	4f	-te
.	.	.	.	4.d	-te	4f	di
.	.	1A	-ri,	.	.	2e	fio-
.	.	.	.	8d	di	.	.
.	.	.	.	4c#X	fio-	.	.
4.D	Le	.	.	2d	-ri,	2f#X	-ri,
8E	cui	.	.	.	.	.	.
4F	ri-	4.A	Le	4.cnXi	Le	2r	.
4F	-ve,	.	.	.	.	.	.
.	.	8B	cui	8d	cui	.	.
=30	=30	=30	=30	=30	=30	=30	=30
4.E	<Le	4c	ri-	2e	ri-	4.g	Le
.	.	4c	-ve,	.	.	.	.
8F	cui	.	.	.	.	8a	cui
4G	ri-	4.B	<Le-	2d	-ve	4b	ri-
2G	-ve> am-	.	.	.	.	2b	-va am-
.	.	8c	-cui	.	.	.	.
.	.	4d	ri-	2r	.	.	.
4G	-be	2e	-ve> am-	.	.	4b	-be
2A	son	.	.	2e	son	2cc	son
.	.	4c	-be	.	.	.	.
=31	=31	=31	=31	=31	=31	=31	=31
2G	pin-	4d	son	2g	pin-	2b	pin-
.	.	4e	pin-	.	.	.	.
4F	-te	4f	-te	4a	-te	4a	-te
4D	di	4f	di	4a	di	4dd	di
2A	fio-	2e	fio-	2a	fio-	2cc#X	fio-
4D	-ri,	2d	-ri,	4f	-ri,	4dd	-ri,
4D	son	.	.	4f	<so	4a	son
=32	=32	=32	=32	=32	=32	=32	=32
2F	pin-	0r	.	2f	pin-	2a	pin-
4C	-te	.	.	4e	-te	4g	-te
4D	di	.	.	2d	di	4f	di
2A	fio-	.	.	.	.	2e	fio-
.	.	.	.	4c#X	fio-	.	.
2D	-ri,	.	.	2d	-ri,>	2f#X	-ri,
=33	=33	=33	=33	=33	=33	=33	=33
2r	.	2r	.	2r	.	2r	.
1G	O-	1B	O-	1d	O-	1g	O-
2G	-ve	2B	-ve	2d	-ve	2g	-ve
=34	=34	=34	=34	=34	=34	=34	=34
1C	so-	1c	so-	1e	so-	1g	so-
2F	-glion	2c	-glion	2f	-glion	2a	-glion
2D	ta-	2d	ta-	2f	ta-	2a	ta-
=35	=35	=35	=35	=35	=35	=35	=35
2A	-l'hor	2c	-l'hor	2e	-l'hor	2a	-l'hor
2.F	Ze-	2.f	Ze-	2.a	Ze-	2.cc	Ze-
4F	-fi-	4f	-firo e-	4a	-fi-	4cc	-fi-
2F	-ro e	2f	.	2a	-ro e	2cc	-ro e
=36	=36	=36	=36	=36	=36	=36	=36
1G	Clo-	1d	-Clo-	1g	Clo-	1b	Clo-
1A	-ri	1c#X	-ri	4e	-ri	2a	-ri
.	.	.	.	2e	Quan-	.	.
.	.	.	.	.	.	4r	.
.	.	.	.	4e	-do	[4a	Quan-
=37	=37	=37	=37	=37	=37	=37	=37
1r	.	1r	.	2f	Fe-	4a]	.
.	.	.	.	.	.	4a	-do
.	.	.	.	4d	-bo ar-	2b-X	Fe-
.	.	.	.	4d	-d'il	.	.
2r	.	4r	.	2e	ciel,	4g	-bo ar-
.	.	2e	Quan-	.	.	4g	-d'il
[2A	Quan-	.	.	4r	.	4a	ciel,
.	.	4e	-do	[4a	Quan-	[4cc	<Quan-
=38	=38	=38	=38	=38	=38	=38	=38
4A]	.	2.f	Fe-	4a]	.	4cc]	.
4A	-do	.	.	4a	-do	4cc	-do
2B-X	Fe-	.	.	2f	Fe-	2dd	Fe-
.	.	4d	-bo ar-	.	.	.	.
4G	-bo ar-	4d	-d'il	4g	-bo ar-	4bnXi	-bo ar-
4G	-d'il	2e	ciel,	4g	-d'il	4b	-d'il
4.A	ciel,	.	.	4e	ciel	[2cc	ciel,>
.	.	[4f	ar-	[4a	ar-	.	.
8BnXi	.	.	.	.	.	.	.
=39	=39	=39	=39	=39	=39	=39	=39
0c	.	4f]	.	4a]	.	2cc]	.
.	.	8eL	.	8gL	.	.	.
.	.	8d	.	8fJ	.	.	.
.	.	8e	.	4g	.	2cc	il
.	.	8cJ	.	.	.	.	.
.	.	2f	.	4a	-d'il	.	.
.	.	.	.	1g	ciel,	1cc	ciel,
.	.	4e	-d'il	.	.	.	.
.	.	2e	ciel,	.	.	.	.
!!LO:TX:a:cj:t=[whole] &rarr; [whole-dot]
=40	=40	=40	=40	=40	=40	=40	=40
*M3/1	*	*M3/1	*	*M3/1	*	*M3/1	*
*omet(3)	*	*omet(3)	*	*omet(3)	*	*omet(3)	*
1F	star-	1c	star-	1f	star-	1a	star-
1B-X	-si a	1d	-si a	1f	-si a	1b-X	-si a
1F	di-	1c	di-	1f	di-	1a	di-
=41	=41	=41	=41	=41	=41	=41	=41
0G	-let-	0B	-let-	0d	-let-	0g	-let-
1C	-to,	1c	-to,	1e	-to,	1g	-to,
=42	=42	=42	=42	=42	=42	=42	=42
1F	<star-	1c	<star-	1f	<star-	1a	<star-
1BB-X	-si a	1B-X	-si a	1f	-si a	1dd	-si a
1FF	di-	1A	di-	1f	di-	1cc	di-
=43	=43	=43	=43	=43	=43	=43	=43
0.C	-let-	0.G	-let-	0.e	-let-	0.cc	-let-
=44	=44	=44	=44	=44	=44	=44	=44
0.FF	-to,>	0.F	-to,>	0.f	-to,>	0.a	-to,>
=45	=45	=45	=45	=45	=45	=45	=45
1r	.	1r	.	1r	.	1r	.
1F	star-	1c	star-	1f	star-	1a	star-
1C	-si a	1c	-si a	1e	-si a	1g	-si a
=46	=46	=46	=46	=46	=46	=46	=46
1D	di-	1A	di-	1d	di-	1f	di-
0E	-let-	0G#X	-let-	0B	-let-	0e	-let-
=47	=47	=47	=47	=47	=47	=47	=47
0.AA	-to.	0.A	-to.	0.c#X	-to.	0.e	-to.
!!LO:TX:a:cj:t=[whole-dot] &rarr; [whole]
=48||	=48||	=48||	=48||	=48||	=48||	=48||	=48||
*M2/1	*	*M2/1	*	*M2/1	*	*M2/1	*
*omet(C|)	*	*omet(C|)	*	*omet(C|)	*	*omet(C|)	*
!!LO:TX:a:t=Terza parte.
2AA	Ti,	2A	Ti,	2c#X	Ti,	2e	Ti,
4D	sa-	4A	sa-	4d	sa-	4f	sa-
4C	-cra	4c	-cra	4e	-cra	4g	-cra
2AA	Tir-	2c	Tir-	2e	Tir-	2a	Tir-
2E	-si, o	2B	-si, o	2e	-si o	2g#X	-si, o
=49	=49	=49	=49	=49	=49	=49	=49
4.A	fa-	4.c	fa-	4.e	fa-	4.a	fa-
8A	-re-	8c	-re-	8e	-re-	8a	-re-
4F	-tra-	4c	-tra-	4f	-tra-	4a	-tra-
4D	-to ar-	4f	-to ar-	4a	-to ar-	4dd	-to ar-
2A	-cie-	2e	-cie-	2a	-cie-	2cc#X	-cie-
2D	-ro,	2d	-ro,	2f#X	-ro,	2dd	-ro,
=50	=50	=50	=50	=50	=50	=50	=50
4r	.	4r	.	4r	.	4r	.
4D	<Ti	4d	<Ti	4f#X	<Ti	4a	<Ti,
4G	sa-	4d	sa-	4g	sa-	4b	sa-
4F	-cra	4f	-cra	4a	-cra	4ccnXi	-cra
2D	Tir-	2f	Tir-	2a	Tir-	2.dd	Tir-
2A	-si o	2e	-si o	2a	-si o	.	.
.	.	.	.	.	.	4cc	-si o
=51	=51	=51	=51	=51	=51	=51	=51
4.F	fa-	4.f	fa-	4.a	fa-	4.cc	fa-
8F	-re-	8f	-re-	8a	-re-	8cc	-re-
4c	-tra-	4e	-tra-	4g	-tra-	4cc	-tra-
4G	-to ar-	2d	-to ar-	4g	-to ar-	4b	-to ar-
2A	-cie-	.	.	2e	-cie-	2a	-cie-
.	.	4c#X	-cie-	.	.	.	.
2D	-ro,>	[2d	-ro,>	2f#X	-ro,>	2a	-ro,>
=52	=52	=52	=52	=52	=52	=52	=52
4r	.	2d]	.	4r	.	4r	.
4D	Per-	.	.	4d	Per-	4f	Per-
2A	-ché,	4r	.	2c#X	-ché,	2e	-ché,
.	.	4A	Per-	.	.	.	.
4r	.	1A	-ché,	4r	.	4r	.
4AA	Per-	.	.	4c#i	<Per-	4e	Per-
2D	-ché	.	.	2d	-ché,>	2f#X	-ché,
=53	=53	=53	=53	=53	=53	=53	=53
0r	.	4r	.	4r	.	1a	Per-
.	.	4d	Per-	4f	Per-	.	.
.	.	4c	-ché	4e	-ché	.	.
.	.	4A	qual	4cnXi	qual	.	.
.	.	4c	hor	4e	hor	4g	-ché
.	.	4c	di	4e	di	4e	qual
.	.	4.B	sa-	4.d	sa-	4g	hor
.	.	.	.	.	.	4g	di
.	.	8c	-et-	8e	-et-	.	.
=54	=54	=54	=54	=54	=54	=54	=54
0r	.	1d	-tar,	4f	-tar	4.f	sa-
.	.	.	.	4d	di	.	.
.	.	.	.	.	.	8g	-et-
.	.	.	.	4.f	sa-	4a	-tar,
.	.	.	.	.	.	4d	di
.	.	.	.	8g	-et-	.	.
.	.	4D	di	4a	-tar,	4.f	sa-
.	.	4.F	sa-	4A	<di	.	.
.	.	.	.	.	.	8g	-et-
.	.	.	.	4.c	sa-	4a	-tar
.	.	8G	-et-	.	.	.	.
.	.	[4A	-tar	.	.	4e	sei
.	.	.	.	8d	-et-	.	.
=55	=55	=55	=55	=55	=55	=55	=55
1r	.	4A]	.	4e	-tar>	4c	stan-
.	.	4B-X	sei	2d	sei	4d	.
.	.	2A	stan-	.	.	2e	-co,
.	.	.	.	4c#X	stan-	.	.
2D	Per-	4D	-co,	2d	-co,	4r	.
.	.	4d	Per-	.	.	4f	Per-
[2A	-ché,	2c#X	-ché,	2r	.	2e	-ché,
=56	=56	=56	=56	=56	=56	=56	=56
4A]	.	2r	.	2e	Per-	4r	.
4A	Per-	.	.	.	.	4cc	Per-
4G	-ché	4r	.	2g	-ché,	4b	-ché
4E	qual	4e	Per-	.	.	4g	qual
4G	hor	4d	-ché	4r	.	4b	hor
4G	di	4BnXi	qual	4d	Per-	4b	di
4.F	sa-	4d	hor	4f	-ché	4.a	sa-
.	.	4d	di	4f	qual	.	.
8G	-et-	.	.	.	.	8b	-et-
=57	=57	=57	=57	=57	=57	=57	=57
2A	-tar,	4.c	sa-	4e	hor	4cc	-tar,
.	.	.	.	4A	di	2c	di
.	.	8d	-et-	.	.	.	.
2AA	di	2e	-tar,	4.c	sa-	.	.
.	.	.	.	.	.	4.e	sa-
.	.	.	.	8d	-et-	.	.
4.C	sa-	2E	di	4e	-tar,	.	.
.	.	.	.	.	.	8f	-et-
.	.	.	.	4e	di	4g	-tar,
8D	-et-	.	.	.	.	.	.
[2E	-tar	4.G	sa-	4.e	sa-	4r	.
.	.	.	.	.	.	4b	<di
.	.	8A	-et-	8f	-et-	.	.
=58	=58	=58	=58	=58	=58	=58	=58
2E]	.	4B	-tar,	2.g	-tar	4.b	sa-
.	.	4G	<di	.	.	.	.
.	.	.	.	.	.	8cc#X	-et-
2D	sei	4.A	sa-	.	.	4dd	-tar>
.	.	.	.	4f	sei	4a	sei
.	.	8B	-et-	.	.	.	.
1A	stan-	4c#X	-tar>	4e	stan-	1a	stan-
.	.	2d	sei	4d	.	.	.
.	.	.	.	2e	.	.	.
.	.	4c#i	stan-	.	.	.	.
=59	=59	=59	=59	=59	=59	=59	=59
2D	-co,	2d	-co,	2f#X	-co,	2a	-co,
2r	.	2r	.	2r	.	2r	.
2D	Qui-	2A	Qui-	2d	Qui-	2f	Qui-
[2C	-vi	[2cnXi	-vi	[2e	-vi	[2g	-vi
=60	=60	=60	=60	=60	=60	=60	=60
4C]	.	4c]	.	4e]	.	4g]	.
4GG	ti	4B	ti	4d	ti	4g	ti
2AA	po-	2A	po-	2c	po-	2e	po-
2E	-si al	2G#X	-si al	2B	-si al	2e	-si al
4.D	mor-	4.A	mor-	4.d	mor-	4.f#X	mor-
8D	-mo-	8A	-mo-	8d	-mo-	8f#i	-mo-
=61	=61	=61	=61	=61	=61	=61	=61
4G	-rar,	4B	-rar,	4d	-rar,	4g	-rar,
4G	al	4B	al	4d	al	4g	al
4.F	mor-	4.c	mor-	4.f	mor-	4.a	mor-
8F	-mo-	8c	-mo-	8f	-mo-	8a	-mo-
4C	-rar	4c	-rar	4e	-rar	4g	-rar
4D	de	2A	de	4d	de	4fnXi	de
2E	l'ac-	.	.	2B	l'ac-	2e	l'ac-
.	.	4G#X	l'ac-	.	.	.	.
=62	=62	=62	=62	=62	=62	=62	=62
2AA	-que.	1A	-que.	2c#X	-que.	2e	-que.
4r	.	.	.	4r	.	4r	.
4A	Ma	.	.	4e	Ma	4cc	Ma
4A	tu	1r	.	4e	tu	4cc	tu
4A	di	.	.	4f#X	di	4cc	di
2G	lei	.	.	4g	lei	2b	lei
.	.	.	.	4d	che	.	.
=63	=63	=63	=63	=63	=63	=63	=63
4F	che	0r	.	4fnXi	tan-	4a	che
2F	tan-	.	.	4cnX	-t'oi-	2a	tan-
.	.	.	.	4d	-mé	.	.
4E	-t'oi-	.	.	4e	ti	4g	-t'oi-
2D	-mé	.	.	4.A	piac-	2f	-mé
.	.	.	.	8BL	.	.	.
2C	ti	.	.	8c	.	4e	ti
.	.	.	.	8d	.	.	.
.	.	.	.	8e	.	[4a	piac-
.	.	.	.	8cJ	.	.	.
=64	=64	=64	=64	=64	=64	=64	=64
1BB-X	piac-	4r	.	4d	.	4a]	.
.	.	4d	Ma	4d	-que,	8gL	.
.	.	.	.	.	.	8fJ	.
.	.	4d	tu	2r	.	2g	.
.	.	4d	di	.	.	.	.
1AA	-que,	1c	lei	2e	Ma	1a	-que,
.	.	.	.	4e	tu	.	.
.	.	.	.	4e	di	.	.
=65	=65	=65	=65	=65	=65	=65	=65
2D	<Ma	4B-X	che	4d	lei,	1r	.
.	.	2A	tan-	4f	<Ma-	.	.
4D	tu	.	.	4f	-tu	.	.
4D	di	4B-X	-t'oi-	4f	di	.	.
2C	lei	4G	-me	2e	lei>	2r	.
.	.	4A	ti	.	.	.	.
4BB-X	che	2B-i	piac-	4d	che	2dd	<Ma
[4BB-i	tan-	.	.	[4f	tan-	.	.
=66	=66	=66	=66	=66	=66	=66	=66
4BB-]	.	4F	-que,	4f]	.	4dd	tu
4BB-i	-t'oi-	4D	Ma	4g	-t'oi-	4dd	di
2AA	-mé	4E	tu	4a	-mé,	2.cc	lei
.	.	4F#X	di	4A	oi-	.	.
2GG	ti	4G	lei	2d	-mé,	.	.
.	.	4G	che	.	.	4b	che
4.FF	piac-	4C	tan-	4r	.	4a	tan-
.	.	4c	-t'oi-	4A	oi-	4f	-t'oi-
8GG	.	.	.	.	.	.	.
=67	=67	=67	=67	=67	=67	=67	=67
1AA	.	4A	-me	4c	-mé	4e	-mé
.	.	4FnXi	ti	4A	ti	2d	ti
.	.	2E	piac-	2A	piac-	.	.
.	.	.	.	.	.	4c#X	piac-
2D	-que>	2D	-que	2A	-que	2d	-que>
4r	.	4r	.	4r	.	4r	.
4D	Al-	4A	Al-	4d	Al-	4f#X	Al-
=68	=68	=68	=68	=68	=68	=68	=68
2G	-quan-	2B	-quan-	2d	-quan-	2g	-quan-
4F	-to	4c	-to	4f	-to	4a	-to
2D	ren-	2d	ren-	2f	ren-	2a	ren-
4D	-d'il	4d	-d'il	4f	-d'il	4a	-d'il
2A	cor	2c	cor	2e	cor	2a	cor
=69	=69	=69	=69	=69	=69	=69	=69
0G	men	2d	men	1g	me	2b	men
.	.	1e	cru-	.	.	1cc	cru-
.	.	.	.	[1g	cru-	.	.
.	.	2d	-d'e	.	.	[2b	-d'e
=70	=70	=70	=70	=70	=70	=70	=70
*	*	*lig	*	*	*	*	*
2C	cru-	1c	fie-	2g]	.	2b]	.
2D	-d'e	.	.	2f	-d'e	1a	fie-
1E	fie-	1B	.	1e	fie-	.	.
*	*	*Xlig	*	*	*	*	*
.	.	.	.	.	.	2g#X	.
=71	=71	=71	=71	=71	=71	=71	=71
2A	-ro,	2c#X	-ro,	2e	-ro,	2a	-ro,
4r	.	4r	.	4r	.	2cc	On-
4c	On-	4e	On-	4g	On-	.	.
4G	-d'ei,	4d	-d'ei,	4g	-d'ei,	4b	-d'ei,
4.A	vin-	4.c#i	vin-	4.e	vin-	4.a	vin-
8A	-to	8c#i	-to	8e	-to	8a	-to
4D	dal	4d	dal	4f	dal	4a	dal
=72	=72	=72	=72	=72	=72	=72	=72
2E	duol,	2B	duol,	1e	duol,	2g#X	duol,
2AA	non	2c#X	non	.	.	2a	non
2D	ve-	2d	ve-	2A	non	2f	ve-
2C	-gna	2G	-gna	[2c	ve-	[2e	-gna
=73	=73	=73	=73	=73	=73	=73	=73
*lig	*	*	*	*	*	*	*
1GG	man-	2.G	man-	2c]	.	2e]	.
.	.	.	.	2B-X	-gna	1d	man-
.	.	4F	.	.	.	.	.
1AA	.	1E	.	1A	man-	.	.
*Xlig	*	*	*	*	*	*	*
.	.	.	.	.	.	2c#X	.
=74	=74	=74	=74	=74	=74	=74	=74
0Dl	-co.	0Dl	-co.	0Al	-co.	0dl	-co.
==	==	==	==	==	==	==	==
*-	*-	*-	*-	*-	*-	*-	*-
!!!system-decoration: [*]
!!!RDF**kern: i = editorial accidental
!!!RDF**kern: l = terminal long
!!!ENC: Emiliano Ricciardi
!!!END: 2018
!!!EED: Ricciardi, Emiliano
!!!EEV: 2018/10/28
!!!YEC: Copyright 2018 Emiliano Ricciardi, All Rights Reserved
!!!ONB: Translated from MusicXML on 2018/10/28 and edited by Craig Stuart Sapp
!!@@BEGIN:	VERSEDATA
!!@SOLERTI:	362
!!@CATALOGNUM:	Trm0362
!!@LAST_MODIFIED: 2020/07/12
!!@TITLE:		Questo riposto bel vago boschetto
!!@GENRE:		sonetto
!!@MANUSRC:	Ts<sub>2</sub>
!!@PRINTSRC:	22, 26, 31, 35, 69, 141, 166, 169
!!@@BEGIN:	VERSES
!!@ABOUTIT:	[Fillide]
!!@ABOUTEN:
!!@EDITOR:	Solerti, Angelo
!!@EDITION_TITLE: Le Rime di Torquato Tasso
!!@EDITION_LOC:	Bologna
!!@EDITION_PUB:	Romagnoli-Dall’Acqua
!!@EDITION_DATE:  1898-1902
!!@EDITION_VOL:	2
!!@EDITION_PAGE:  397
!!@TRANSLATOR:	Emiliano Ricciardi and Amyrose McCue Gill
!!@VERSE:
!!	Questo riposto bel vago boschetto
!!	D'ombrosi mirti e d'indorati allori,
!!	Non de' rozzi bifolchi o de' pastori,
!!	Ma d'amorose dee stanza e ricetto;
!!@VERSE:
!!	Ch'asconde in grembo un picciol ruscelletto
!!	Le cui rive ambe son pinte di fiori,
!!	Ove soglion talor Zefiro e Clori
!!	Quando Febo arde il ciel, starsi a diletto;
!!@VERSE:
!!	Ti sacra Tirsi, o faretrato arciero,
!!	Perché, qualor di saettar sei stanco,
!!	Quivi ti posi al mormorar de l'acque.
!!@VERSE:
!!	Ma tu di lei che tanto, oimé!, ti piacque
!!	Alquanto rendi il cor men crudo e fiero,
!!	Ond'ei, vinto dal duol, non vegna manco.
!!@TVERSE:
!!	This hidden, beautiful, and lovely grove
!!	Of shady myrtles and gilded laurels,
!!	Neither for boorish yokels nor for shepherds,
!!	But for amorous Goddesses home and refuge;
!!@TVERSE:
!!	Which hides in its womb a tiny brook
!!	Whose banks are both painted with flowers,
!!	Where Zephyr and Chloris rest,
!!	Taking pleasure as Phoebus lights the sky;
!!@TVERSE:
!!	You, sacred Thyrsis, O archer with arrows,
!!	Why, when you are tired of shooting,
!!	Do you lie here at the murmuring waters?
!!@TVERSE:
!!	But may you make less cruel and proud
!!	The heart of her whom – oh dear me! – you liked so much,
!!	So that he, overcome with pain, may not give up.
!!@@END:		VERSES
!!@OTHER_CRIT_ED:   None
!!@ATTRIBUTION_ABOUT:	Secure
!!		<br>
!!		Among other sources (see Literary Sources), this poem survives in a copy with Tasso's autograph annotations of the print <i>Rime et prose del Signor Torquato Tasso. Parte terza. Novamente poste in luce</i>
!!(Venetia: Giulio Vasalini, 1583)
!!@DATING:	Before 1583
!!		<br>
!!		The earliest appearance of this poem is in a literary print published in 1583 in Ferrara by Giulio Vasalini (see Literary Sources). As Solerti noted, a manuscript annotation in Tasso's hand in an examplar of this print reads "fatti in fanciullezza" (made in [my] youth), referring to this sonnet and "Quest'umil cetra ond'io solea talora" (<i>Rime</i> 500).
!!@DEDICATEE:
!!@COMMENTARY:
!!@@END:		VERSEDATA
!!@@BEGIN:	SETTING
!!@CATALOGNUM:	Trm0362a
!!@RIMETITLE:	Questo riposto bel vago boschetto
!!@SOLERTI:	362
!!@COMPOSER:	Dueto, Antonio
!!@PRINCEPSTITLE:	Il secondo libro de madrigali a quattro voci
!!@PRINCEPSLOC:	Venetia
!!@NORMLOC:	Venice
!!@NORMPUB:	Angelo Gardano
!!@NORMPUBSHORT:	Gardano
!!@PRINCEPSPUB:	Gardano
!!@PRINCEPSYEAR:	1586
!!@PRINCEPSRISM:	D 3655
!!@REPRINTS:	
!!@OVOICES:	4
!!@EXTANTVOICES:	4
!!@PARTBOOKS:	
!!@EXTPARTBOOKS:	
!!@OCLEFS:	C1,C3,C4,F4
!!@OMENSURATION:	Cut-C; 3; Cut-C
!!@OKEYSIG:	-
!!@FINAL:	A
!!@TIMPEDITOR:	Ricciardi, Emiliano
!!@NOTE:		
!!@@END:		SETTING
